X:1
T:Title
%%score { ( 1 4 ) | ( 2 3 ) }
L:1/8
Q:1/4=100
M:4/4
K:F
V:1 treble nm="Grand Piano"
V:4 treble 
V:2 bass 
V:3 bass 
V:1
 F2 F2 [FG]2 [EG]2 | AG F4 F2 | G2 [C_EA]2 [DGB]2 [FA]G | A8 | F2 F2 [FG]2 [EG]2 | AB c4 A2 | %6
w: Cornelius~Vleugel * * *||||||
 d2 [DGB]2 [CFA]2 [B,EG]2 |[M:3/4] [A,F]6 |[M:1/4] z2 |[M:4/4] z4 z2 D2 | z2 D2 E2 GF | %11
w: |||||
 E2 E2 E2 .[DE]2 |[M:3/4] [DF]6 |[M:1/4] AG |[M:4/4] [DF]2 [EF]2 [DF]2 [CF]2 | G2- [CG]2 [DG]2 BA | %16
w: |||||
 [DG]2 G2 [EG]2 G2 |[M:5/4] [Cc]2- [C-Fc-]2 [CGc]6 |[M:4/4] F2 F2 [FG]2 [EG]2 | AG F4 F2 | %20
w: ||||
 G2 [C_EA]2 [DGB]2 [FA]G | A8 | F2 F2 [FG]2 [EG]2 | AB c4 A2 | d2 [DGB]2 [CFA]2 [B,EG]2 | %25
w: |||||
[M:7/4] [A,F]6 z2 z2 z4 |] %26
w: |
V:2
 [F,A,C]2 [D,A,D]2 [C,C]2 [C,C]2 | [F,CF][F,B,E] [F,A,]4 [F,A,C]2 | [_E,B,_E]2 C,2 B,,2 z =E | %3
 [F,CF]8 | [F,A,C]2 [D,A,D]2 [C,C]2 [C,C]2 | [F,CF][G,CF] [A,CF]4 [F,CF]2 | %6
 [B,F]2[K:bass] B,,2 C,2 C,2 |[M:3/4] F,6 |[M:1/4][K:treble] FE |[M:4/4] D2 C2 B,2[K:bass] B,A, | %10
 B,2 z2 [A,^C]2 [B,D]2 | D2 ^C2 =B,2 z C |[M:3/4] D,2 E,2 F,2 |[M:1/4] F,E, | %14
[M:4/4] D,2 C,2 B,,2 A,,2 | G,,2 A,,2 B,,2 G,,A,, | z2 F2 z2 D2 |[M:5/4] C,2 D,2 E,6 | %18
[M:4/4] [F,A,C]2 [D,A,D]2 [C,C]2 [C,C]2 | [F,CF][F,B,E] [F,A,]4 [F,A,C]2 | %20
 [_E,B,_E]2 C,2 B,,2 z =E | [F,CF]8 | [F,A,C]2 [D,A,D]2 [C,C]2 [C,C]2 | %23
 [F,CF][G,CF] [A,CF]4 [F,CF]2 | [B,F]2[K:bass] B,,2 C,2 C,2 |[M:7/4] F,6 z2 z2 z4 |] %26
V:3
 x8 | x8 | z4 z2 [C,C]2 | x8 | x8 | x8 | x2[K:bass] x6 |[M:3/4] x6 |[M:1/4][K:treble] x2 | %9
[M:4/4] x6[K:bass] x2 | G,4 z4 | A,6 A,2 |[M:3/4] x6 |[M:1/4] x2 |[M:4/4] x8 | x8 | B,,4 =B,,4 | %17
[M:5/4] x10 |[M:4/4] x8 | x8 | z4 z2 [C,C]2 | x8 | x8 | x8 | x2[K:bass] x6 |[M:7/4] x14 |] %26
V:4
 x8 | x8 | x8 | x8 | x8 | x8 | x8 |[M:3/4] x6 |[M:1/4] x2 |[M:4/4] z2 D2 D2 z C | E4 z4 | x8 | %12
[M:3/4] x6 |[M:1/4] ^C2 |[M:4/4] x8 | B,2 z2 z2 D2 | x8 |[M:5/4] E2 z2 z2 z4 |[M:4/4] x8 | x8 | %20
 x8 | x8 | x8 | x8 | x8 |[M:7/4] x14 |] %26

